svg/u1f503.svg

<svg viewBox="0 0 128 128" xmlns="http://www.w3.org/2000/svg">
  <g>
    <path d="M116,4H12c-4.42,0-8,3.58-8,8v104c0,4.42,3.58,8,8,8h104c4.42,0,8-3.58,8-8V12 C124,7.58,120.42,4,116,4z" fill="#427687"/>
    <path d="M109.7,4H11.5C7.37,4.03,4.03,7.37,4,11.5v97.9c-0.01,4.14,3.34,7.49,7.48,7.5c0.01,0,0.01,0,0.02,0 h98.1c4.14,0.01,7.49-3.34,7.5-7.48c0-0.01,0-0.01,0-0.02V11.5c0.09-4.05-3.13-7.41-7.18-7.5C109.85,4,109.77,4,109.7,4z" fill="#8CAFBF"/>
    <path d="M66.83,42.66c1.37,1.55,1.22,3.92-0.33,5.29c-0.69,0.61-1.58,0.94-2.5,0.94H50.78 c-1.04,0-1.89,0.85-1.89,1.89v32.1c0,4.54,1.42,11,11.33,11.33l12.56,14l0,0c-2.87,0.76-5.82,1.13-8.78,1.11 c-16.71,0-30.21-11.8-30.21-26.44v-32.1c0-1.04-0.85-1.89-1.89-1.89H18.68c-2.07,0.01-3.76-1.66-3.77-3.73 c0-0.92,0.33-1.81,0.94-2.5L38.51,20c1.38-1.56,3.77-1.71,5.34-0.32c0.11,0.1,0.22,0.21,0.32,0.32L66.83,42.66z" fill="#FAFAFA"/>
    <path d="M61.17,85.34c-1.37-1.55-1.22-3.92,0.33-5.29c0.69-0.61,1.58-0.94,2.5-0.94h13.22 c1.04,0,1.89-0.85,1.89-1.89v-32.1c0-4.54-1.42-10.86-11.33-11.33l-12.56-14l0,0c2.87-0.76,5.82-1.13,8.78-1.11 c16.71,0,30.21,11.8,30.21,26.44v32.1c0,1.04,0.85,1.89,1.89,1.89h13.22c2.08,0,3.76,1.69,3.76,3.76c0,0.91-0.33,1.78-0.93,2.47 L89.49,108c-1.38,1.56-3.77,1.71-5.34,0.32c-0.11-0.1-0.22-0.21-0.32-0.32L61.17,85.34z" fill="#FAFAFA"/>
    <path d="M39.7,12.9c0-2.3-1.6-3-10.8-2.7c-7.7,0.3-11.5,1.2-13.8,4 s-2.9,8.5-3,15.3c0,4.8,0,9.3,2.5,9.3c3.4,0,3.4-7.9,6.2-12.3C26.2,17.8,39.7,15.9,39.7,12.9z" opacity="0.5" fill="#B4E1ED" enable-background="new "/>
  </g>
</svg>

<svg viewBox="0 0 128 128" xmlns="http://www.w3.org/2000/svg">
  <defs/>
  <path d="M116,4 L12,4 C7.58,4 4,7.58 4,12 L4,116 C4,120.42 7.58,124 12,124 L116,124 C120.42,124 124,120.42 124,116 L124,12 C124,7.58 120.42,4 116,4 Z" fill="#427687"/>
  <path d="M109.7,4 L11.5,4 C7.37,4.03 4.03,7.37 4,11.5 L4,109.4 C3.99,113.54 7.34,116.89 11.48,116.9 C11.49,116.9 11.49,116.9 11.5,116.9 L109.6,116.9 C113.74,116.91 117.09,113.56 117.1,109.42 C117.1,109.41 117.1,109.41 117.1,109.4 L117.1,11.5 C117.19,7.45 113.97,4.09 109.92,4 C109.85,4 109.77,4 109.7,4 Z" fill="#8CAFBF"/>
  <path d="M66.83,42.66 C68.2,44.21 68.05,46.58 66.5,47.95 C65.81,48.56 64.92,48.89 64,48.89 L50.78,48.89 C49.74,48.89 48.89,49.74 48.89,50.78 L48.89,82.88 C48.89,87.42 50.31,93.88 60.22,94.21 L72.78,108.21 L72.78,108.21 C69.91,108.97 66.96,109.34 64,109.32 C47.29,109.32 33.79,97.52 33.79,82.88 L33.79,50.78 C33.79,49.74 32.94,48.89 31.9,48.89 L18.68,48.89 C16.61,48.9 14.92,47.23 14.91,45.16 C14.91,44.24 15.24,43.35 15.85,42.66 L38.51,20 C39.89,18.44 42.28,18.29 43.85,19.68 C43.96,19.78 44.07,19.89 44.17,20 L66.83,42.66 Z" fill="#FAFAFA"/>
  <path d="M61.17,85.34 C59.8,83.79 59.95,81.42 61.5,80.05 C62.19,79.44 63.08,79.11 64,79.11 L77.22,79.11 C78.26,79.11 79.11,78.26 79.11,77.22 L79.11,45.12 C79.11,40.58 77.69,34.26 67.78,33.79 L55.22,19.79 L55.22,19.79 C58.09,19.03 61.04,18.66 64,18.68 C80.71,18.68 94.21,30.48 94.21,45.12 L94.21,77.22 C94.21,78.26 95.06,79.11 96.1,79.11 L109.32,79.11 C111.4,79.11 113.08,80.8 113.08,82.87 C113.08,83.78 112.75,84.65 112.15,85.34 L89.49,108 C88.11,109.56 85.72,109.71 84.15,108.32 C84.04,108.22 83.93,108.11 83.83,108 L61.17,85.34 Z" fill="#FAFAFA"/>
  <path d="M39.7,12.9 C39.7,10.6 38.1,9.9 28.9,10.2 C21.2,10.5 17.4,11.4 15.1,14.2 C12.8,17 12.2,22.7 12.1,29.5 C12.1,34.3 12.1,38.8 14.6,38.8 C18,38.8 18,30.9 20.8,26.5 C26.2,17.8 39.7,15.9 39.7,12.9 Z" fill="#B4E1ED" opacity="0.5"/>
</svg>
